public/logo.svg

<?xml version="1.0" encoding="UTF-8"?>
<svg width="36" height="36" version="1.2" viewBox="0 0 36 36" xml:space="preserve" xmlns="http://www.w3.org/2000/svg">
<g transform="translate(6.0597 1.2766)" fill="#9d0917"><g transform="matrix(1.9045 0 0 1.9045 -136.1 -40.947)">
		<path d="m76.434 38.063v-0.253c-3e-3 -4e-3 -9e-3 -5e-3 -0.013-0.01 3e-3 0.091 0.013 0.167 0.013 0.263z"/>
		<path d="m78.752 27.925c-0.439 0-0.827 0.12-1.448 0.384l-1.37 0.576s-0.027-4.292 0-5.62c0.012-0.593 0.904-0.921 0.904-0.921l0.017-0.844-0.921 0.329c-1.293 0.36-3.18 0.696-4.473 0.84v0.672c1.525 0.12 1.629 0.312 1.629 1.728v7.853l2.844-9e-3v-3.235c0.414-0.144 0.879-0.264 1.422-0.264 1.81 0 3.516 1.344 3.516 4.272 0 1.724-0.455 2.965-1.177 3.69-0.494 0.497-1.113 0.75-1.796 0.75-0.682-0.017-1.155 0.026-1.465-0.316v0.253c0-0.095-0.01-0.171-0.013-0.263-1e-3 -1e-3 -3e-3 -1e-3 -4e-3 -3e-3l-3.328 0.078v0.323c1.655 0.624 2.974 0.864 4.266 0.864 3.671 0 6.645-2.568 6.645-6.073 1e-3 -2.736-2.249-5.064-5.248-5.064z"/>
	</g><rect y="30.234" width="22.422" height="3.2129" stroke-width="1.9045"/><polygon transform="matrix(1.9045 0 0 1.9045 -136.1 -40.947)" points="73.052 33.998 73.989 32.852 75.005 32.852 75.943 33.998"/></g>

</svg>

<?xml version="1.0" encoding="UTF-8" standalone="no"?>
<!DOCTYPE svg PUBLIC "-//W3C//DTD SVG 1.1//EN" "http://www.w3.org/Graphics/SVG/1.1/DTD/svg11.dtd">
<svg width="100%" height="100%" viewBox="0 0 36 36" version="1.1" xmlns="http://www.w3.org/2000/svg" xmlns:xlink="http://www.w3.org/1999/xlink" xml:space="preserve" xmlns:serif="http://www.serif.com/" style="fill-rule:evenodd;clip-rule:evenodd;stroke-linejoin:round;stroke-miterlimit:2;">
    <g transform="matrix(1,0,0,1,6.0597,1.2766)">
        <g transform="matrix(1.9045,0,0,1.9045,-136.1,-40.947)">
            <path d="M76.434,38.063L76.434,37.81C76.431,37.806 76.425,37.805 76.421,37.8C76.424,37.891 76.434,37.967 76.434,38.063Z" style="fill:rgb(186,12,47);fill-rule:nonzero;"/>
            <path d="M78.752,27.925C78.313,27.925 77.925,28.045 77.304,28.309L75.934,28.885C75.934,28.885 75.907,24.593 75.934,23.265C75.946,22.672 76.838,22.344 76.838,22.344L76.855,21.5L75.934,21.829C74.641,22.189 72.754,22.525 71.461,22.669L71.461,23.341C72.986,23.461 73.09,23.653 73.09,25.069L73.09,32.922L75.934,32.913L75.934,29.678C76.348,29.534 76.813,29.414 77.356,29.414C79.166,29.414 80.872,30.758 80.872,33.686C80.872,35.41 80.417,36.651 79.695,37.376C79.201,37.873 78.582,38.126 77.899,38.126C77.217,38.109 76.744,38.152 76.434,37.81L76.434,38.063C76.434,37.968 76.424,37.892 76.421,37.8C76.42,37.799 76.418,37.799 76.417,37.797L73.089,37.875L73.089,38.198C74.744,38.822 76.063,39.062 77.355,39.062C81.026,39.062 84,36.494 84,32.989C84.001,30.253 81.751,27.925 78.752,27.925Z" style="fill:rgb(186,12,47);fill-rule:nonzero;"/>
        </g>
        <rect x="0" y="30.234" width="22.422" height="3.213" style="fill:rgb(186,12,47);"/>
        <g transform="matrix(1.9045,0,0,1.9045,-136.1,-40.947)">
            <path d="M73.052,33.998L73.989,32.852L75.005,32.852L75.943,33.998L73.052,33.998Z" style="fill:rgb(186,12,47);fill-rule:nonzero;"/>
        </g>
    </g>
</svg>
